X:1
T:Title
%%score { 1 | ( 2 3 ) }
L:1/8
M:4/4
K:G
V:1 treble nm="Grand Piano"
V:2 bass 
V:3 bass 
V:1
 z4 z2[Q:1/4=108] D2 | G2 G2 G2 GA | BB B2 B2 G2 | [CFA]2 [CFA]>[CFA] [B,G]2 [DFA]2 |[M:3/4] B6 | %5
[M:1/4] D2 |[M:4/4] G2 G2 G2 GA | BB B2 B2 G2 | [EA]2 [EA]>[EA] [B,DG]2 [A,DF]2 |[M:3/4] [B,DG]6 | %10
[M:1/4] [GB]c |[M:4/4] [Bd]2 [Bd]2 [Bd]2 [Bd]2 | [ce]2 [Bd]4 [B,GB][Ac] | [Bd]3 [Bd] [Ac]2 [GB]2 | %14
 [FA]6 D2 | G2 G2 G2 GA | BB B2 B2 G2 | [EA]2 [EA]>[EA] [B,DG]2 [A,DF]2 | %18
[M:7/4] [B,DG]6 z2 z2 z4 |] %19
V:2
 z4 z2 [G,B,]2 | [G,B,D]2 [G,B,D]2 [G,B,D]2 [G,B,D][K:treble][G,CF] | %2
 [G,DG][G,DG] [G,DG]2 [G,DG]2[K:bass] [G,B,]2 | D,2 D,>D, D,2 D,2 |[M:3/4][K:treble] [G,DG]6 | %5
[M:1/4] [G,B,]2 |[M:4/4] [G,B,D]2 [G,B,D]2 [G,B,D]2 [G,B,D][G,CF] | %7
 [G,DG][G,DG] [G,DG]2 [G,DG]2[K:bass] [G,B,]2 | [C,C]2 [C,C]>[C,C] D,2 D,2 |[M:3/4] G,,6 | %10
[M:1/4] z[K:treble] A |[M:4/4] G,2 G,2 G,2 G,2 | G,2 G,4 G,[G,B,] | [G,B,]3 [G,B,] [D,D]2 [D,D]2 | %14
 [D,D]6 [D,C]2 | [G,B,D]2 [G,B,D]2 [G,B,D]2 [G,B,D][G,CF] | %16
 [G,DG][G,DG] [G,DG]2 [G,DG]2[K:bass] [G,B,]2 | [C,C]2 [C,C]>[C,C] D,2 D,2 | %18
[M:7/4] G,,6 z2 z2 z4 |] %19
V:3
 x8 | x7[K:treble] x | x6[K:bass] x2 | x8 |[M:3/4][K:treble] x6 |[M:1/4] x2 |[M:4/4] x8 | %7
 x6[K:bass] x2 | x8 |[M:3/4] x6 |[M:1/4] G,2[K:treble] |[M:4/4] x8 | x8 | x8 | x8 | x8 | %16
 x6[K:bass] x2 | x8 |[M:7/4] x14 |] %19

